X:310
T: Petticoat Loose
S: "Johnny O'Leary of Sliabh Luachra" (#79)
Z: B.Black
L: 1/8
M: 6/8
R: jig
K: Amix
BA|: G/A/GE cEE|GEE G2A|GEE cBc|Adc dcA|
GEE c z c|dcd eag|e/f/ge ded|1 cAA dcA :|2\
cAA A3||
efg efg|edB c/d/cd|eag age|edc dcd|
efg efg|edB c/d/cd|e/f/ge ded|1 cAA A3 :|2\
cAA dcA||

